X:1
T:The Risk Is Too Great
T:The Risk Is Too Great
T:Haldor Lillenas
T:James Rowe, 1917
T:Public Domain Courtesy of the Cyber Hymnal™
T:Public Domain Courtesy of the Cyber Hymnal™
C:Haldor Lillenas
Z:Public Domain
Z:Courtesy of the Cyber Hymnal™
%%score ( 1 2 ) ( 3 4 )
L:1/8
Q:1/4=128
M:6/4
K:Db
V:1 treble 
V:2 treble 
V:3 bass 
V:4 bass 
V:1
 D2 | [DF]3 [DF] [DF]2 [DF]2 [DE]2 [DF]2 | [CG]3 [CG] [CG]2 [CG]4 [CE]2 | %3
w: 1.~Don’t|try to suc- ceed with- out|Christ as your friend, Be-|
w: 2.~Don’t|try to go on with- out|Christ as your guide, Lest|
w: 3.~Don’t|trust to your good- ness to|save you at last, For|
 [CG]3 [CG] [CG]2 [CG]2 [DF]2 E2 | [DA]3 [DA] [CA]2 [DA]4 [FA]2 | %5
w: cause if you do, you will|fail in the end; Don’t|
w: foes o- ver- take you and|e- vils be- tide; He|
w: on- ly the Sav- ior can|blot out your past; So|
 [GB]2 [GB]2 [GB]2 [Bd]2 [Ac]2 [GB]2 | [FA]3 [GB] [FA]2 [DF]4 [DF]2 | %7
w: put off sal- va- tion un-|til ’tis too late, Don’t|
w: knows the right way un- to|Hea- ven’s fair gate, Don’t|
w: trust Him com- plete- ly to-|day, do not wait, Don’t|
 [CE]3 [CA] [Ec]2 [Ee]2 [Ec]2 [EA]2 | [=Gd]2 [Gc]2 [GB]2 !fermata!A4 ||"^Refrain" [GA]2 | %10
w: live with- out Je- sus, the|risk is too great.||
w: walk with- out Je- sus, the|risk is too great.|The|
w: live with- out Je- sus, the|risk is too great.||
 [Fd]3 [Fd] [Fd]2 [Fd]4 [FA]2 | [GB]3 [GB] [GB]2 [GB]4 [GB]2 | [FA]3 [FA] [FA]2 [FA]2 [DF]2 [CE]2 | %13
w: |||
w: risk is too great, the|risk is too great, Each|day you are fac- ing a|
w: |||
 [B,D]2 [B,C]2 [B,D]2 !fermata![CE]4 [CE]2 | [DF]2 [DF]2 [DF]2 [CG]4 [EG]2 | %15
w: ||
w: ter- ri- ble fate; Be|saved ere too late, face|
w: ||
 [FA]2 [DF]2 D2 !fermata![Gd]4 [GB]2 | [FA]3 [=E=G] [FA]2 [_GB]2 [FA]2 [Ad]2 | %17
w: ||
w: Hea- ven’s bright gate, Don’t|live with- out Je- sus: The|
w: ||
 [Ge]2 [Fd]2 [Ec]2 [Fd]4 |] %18
w: |
w: risk is too great.|
w: |
V:2
 D2 | x12 | x12 | x10 E2 | x12 | x12 | x12 | x12 | x6 A4 || x2 | x12 | x12 | x12 | x12 | x12 | %15
 x4 D2 x6 | x12 | x10 |] %18
V:3
 [D,F,]2 | [D,A,]3 [D,A,] [D,A,]2 [D,A,]2 [D,G,]2 [D,A,]2 | %2
 [E,A,]3 [E,A,] [E,A,]2 [E,A,]4 [E,A,]2 | [A,,A,]3 [A,,A,] [A,,A,]2 [A,,A,]2 [B,,A,]2 [C,G,]2 | %4
 [D,F,]3 [D,F,] [E,G,]2 [F,A,]4 [D,D]2 | [G,D]2 [G,D]2 [G,D]2 [G,D]2 [G,D]2 [G,D]2 | %6
 [D,D]3 [D,D] [D,D]2 [D,A,]4 [D,A,]2 | [E,A,]3 [E,A,] [E,A,]2 [E,C]2 [E,A,]2 [E,C]2 | %8
 [E,B,]2 [E,E]2 [E,D]2 !fermata![A,,C]4 || [C,A,]2 | [D,A,]3 [D,A,] [D,A,]2 [D,A,]4 [D,D]2 | %11
 [G,D]3 [G,D] [G,D]2 [G,D]4 [G,D]2 | [D,D]3 [D,D] [D,D]2 [D,D]2 [D,A,]2 [A,,A,]2 | %13
 [E,=G,]2 [E,G,]2 [E,G,]2 !fermata![A,,A,]4 [A,,A,]2 | [D,A,]2 [D,A,]2 [D,A,]2 [E,A,]4 [A,,A,]2 | %15
 [D,A,]2 [D,A,]2 [F,A,]2 !fermata![G,B,]4 [G,D]2 | [D,D]3 [D,D] [D,D]2 [D,D]2 [D,D]2 [F,D]2 | %17
 [G,B,]2 A,2 [A,,A,]2 [D,A,]4 |] %18
V:4
 x2 | x12 | x12 | x12 | x12 | x12 | x12 | x12 | x10 || x2 | x12 | x12 | x12 | x12 | x12 | x12 | %16
 x12 | x2 A,2 x6 |] %18

